X:1
T:Title
%%score 1 { 2 | 3 }
L:1/8
Q:1/4=100
M:4/4
K:Ab
V:1 treble nm="Grand Piano, Soprano"
V:2 bass nm="Choir Pad, I Come to Thee (Morris)"
V:3 bass 
V:1
 [CE]2 [Ec]2- [Ec][Fd][Ec][CA] | [A,C][B,D] [DF]4 [CE]2 | [CA]2 [EG]2- [EG][EA][EB][E=A] | %3
w: By~Lelia~Naylor~Morris * * * * *|||
 [EB][Ed] [Ec]6 | [CE]2 [CA]2- [CA][DB][Ec][_Ge] | [FA][=Ed] [_Ec]4 [CA]2 | %6
w: |||
 [Ec]2 [FB]2- [FB][Fd][Ec][FB] | [EA][DG] [CA]6 | [CE]2 [DB]6 | [Ec]2 [CA]6 | %10
w: ||||
 [CE]2 [Ed]2- [Ed][Ec][EB][Ec] | [Ee]>[Ed] [Ec]6 | [CE]2 [Ee]2- [Ee][Ee] [Ed]2 | %13
w: |||
 [Ec]2 [FB]2 [FA]2 [DF]2- | [DF][Fd] [Ec]2- [Ec][CA][Ec][DB] | [CA]>[B,G] [CA]6- | [CA]2 z2 z4 |] %17
w: ||||
V:2
 A,2 A,2- A,A,A,E, | E,E, A,6 | A,2 B,2- B,[K:treble]CDC | DG,[K:bass] A,6 | A,2 A,2- A,A,A,A, | %5
 A,A, A,6 | A,2 A,2- A,B,ED | CB, A,6 | z2 z z/ G,/ G,G, G,2 | z2 z z/ A,/ A,F, E,2 | %10
 A,2 B,2- B,A,G,A, | C>B, A,>A, A,A, A,2 | A,2[K:treble] C2- CC B,2 | A,2 D2 D2[K:bass] A,2- | %14
 A,A, A,2- A,E,A,G, | E,>E, E,6- | E,2 z2 z4 |] %17
V:3
 A,,2 A,,2- A,,A,,A,,A,, | A,,A,, A,,6 | A,,2 E,2- E,E,E,D, | D,E, A,,6 | A,,2 A,,2- A,,A,,A,,A,, | %5
 D,D, A,,6 | A,,2 D,2- D,B,,C,D, | E,E, A,,6 | z2 z z/ E,/ E,E, E,2 | z2 z z/ A,,/ A,,A,, A,,2 | %10
 z2 E,2- E,E,E,E, | E,>E, z2 E,C, A,,2 | z2 A,2- A,A, G,2 | z2 D,2 D,2 D,2- | D,D, E,4 E,E, | %15
 z2 A,,6- | A,,2 z2 z4 |] %17

